src/images/icons/daily-yield.svg

<svg width="23" height="18" viewBox="0 0 23 18" fill="none" xmlns="http://www.w3.org/2000/svg">
<path d="M21.0833 6.29175C21.0833 8.98414 16.718 11.1667 11.3333 11.1667M21.0833 6.29175C21.0833 3.59936 16.718 1.41675 11.3333 1.41675C5.94848 1.41675 1.58325 3.59936 1.58325 6.29175M21.0833 6.29175V12.2501C21.0833 14.6433 16.718 16.5834 11.3333 16.5834M11.3333 11.1667C5.94848 11.1667 1.58325 8.98414 1.58325 6.29175M11.3333 11.1667V16.5834M1.58325 6.29175V12.2501C1.58325 14.6433 5.94848 16.5834 11.3333 16.5834M5.91659 15.8537V10.3458M16.7499 15.8537V10.3458" stroke="#5C70D6" stroke-width="2" stroke-linecap="round" stroke-linejoin="round"/>
</svg>

<svg xmlns="http://www.w3.org/2000/svg" width="23" height="18" fill="none"><path stroke="#5C70D6" stroke-linecap="round" stroke-linejoin="round" stroke-width="2" d="M21.083 6.292c0 2.692-4.365 4.875-9.75 4.875m9.75-4.875c0-2.693-4.365-4.875-9.75-4.875s-9.75 2.182-9.75 4.875m19.5 0v5.958c0 2.393-4.365 4.333-9.75 4.333m0-5.416c-5.385 0-9.75-2.183-9.75-4.875m9.75 4.875v5.416M1.583 6.292v5.958c0 2.393 4.365 4.333 9.75 4.333m-5.416-.73v-5.507m10.833 5.508v-5.508"/></svg>
